src/pos-icons/clipboard-text-play-outline.svg

<svg height="24" viewBox="0 0 24 24" width="24" xmlns="http://www.w3.org/2000/svg"><path d="m19 3h-4.18c-.57-1.56-2.29-2.36-3.82-1.8-.86.3-1.5.96-1.82 1.8h-4.18a2 2 0 0 0 -2 2v14a2 2 0 0 0 2 2h10v-2h-10v-14h2v2h10v-2h2v9h2v-9a2 2 0 0 0 -2-2m-7 2a1 1 0 0 1 -1-1 1 1 0 0 1 1-1 1 1 0 0 1 1 1 1 1 0 0 1 -1 1m5 11v6l5-3zm0-5h-10v-2h10zm-2 4h-8v-2h8z"/></svg>

<?xml version="1.0" encoding="UTF-8"?><!DOCTYPE svg PUBLIC "-//W3C//DTD SVG 1.1//EN" "http://www.w3.org/Graphics/SVG/1.1/DTD/svg11.dtd"><svg xmlns="http://www.w3.org/2000/svg" xmlns:xlink="http://www.w3.org/1999/xlink" version="1.1" id="mdi-clipboard-text-play-outline" width="24" height="24" viewBox="0 0 24 24"><path d="M19,3H14.82C14.25,1.44 12.53,0.64 11,1.2C10.14,1.5 9.5,2.16 9.18,3H5A2,2 0 0,0 3,5V19A2,2 0 0,0 5,21H15V19H5V5H7V7H17V5H19V14H21V5A2,2 0 0,0 19,3M12,5A1,1 0 0,1 11,4A1,1 0 0,1 12,3A1,1 0 0,1 13,4A1,1 0 0,1 12,5M17,16V22L22,19L17,16M17,11H7V9H17V11M15,15H7V13H15V15Z" /></svg>
